!!!COM: Palestrina, Giovanni Perluigi da
!!!OPR: Missa Confitebor tibi
!!!OMD: Credo
!!!OTL: Et ascendit
**kern	**kern	**kern	**kern
*Ibass	*Itenor	*Icalto	*Icant
!Bassus	!Tenor	!Altus	!Cantus
*clefF4	*clefGv2	*clefG2	*clefG2
*k[b-]	*k[b-]	*k[b-]	*k[b-]
*G:dor	*G:dor	*G:dor	*G:dor
*M4/2	*M4/2	*M4/2	*M4/2
=119	=119	=119	=119
0r	1.A	0r	0r
.	2B-	.	.
=120	=120	=120	=120
0r	1c	0r	0r
.	2d	.	.
.	2e	.	.
=121	=121	=121	=121
0r	2.f	1.d	1r
.	4e	.	.
.	2d	.	[1a
.	2c	2e	.
=122	=122	=122	=122
0r	1d	1f	2a]
.	.	.	2b-
.	2.c	2g	1cc
.	.	2a	.
.	8B-	.	.
.	8A	.	.
=123	=123	=123	=123
1r	1G	1.b-	2dd
.	.	.	2ee
[1D	1d	.	[1ff
.	.	4a	.
.	.	4g	.
=124	=124	=124	=124
2D]	0r	2f	2ff]
2E	.	2g	4ee
.	.	.	4dd
1F	.	4a	2cc
.	.	4g	.
.	.	4f	[2dd
.	.	8e	.
.	.	8d	.
=125	=125	=125	=125
2G	1r	1e	2dd]
2A	.	.	2cc#
2.B-	2r	1d	[1dd
.	[2G	.	.
4A	.	.	.
=126	=126	=126	=126
2G	2G]	2r	1dd]
2F	2A	1d	.
1G	1B-	.	1r
.	.	2e	.
=127	=127	=127	=127
2.F	1c	1f	1.a
4E	.	.	.
2D	1d	2f	.
2G	.	2g	2b-
=128	=128	=128	=128
1F	2.f	2.a	1cc
.	4e	4g	.
1r	2f	2a	2dd
.	2g	2b-	2ee
=129	=129	=129	=129
2r	2.a	2.cc	2ff
2A	.	.	1ee
.	4g	4b-	.
2A	1f	4a	.
.	.	4g	.
2B-	.	2f	[2dd
=130	=130	=130	=130
2G	1e	2b-	4dd]
.	.	.	4cc
2A	.	2a	4cc
.	.	.	8dd
.	.	.	8ee
2D	1d	1a	1ff
[2d	.	.	.
=131	=131	=131	=131
2d]	1A	2r	1ee
4c#	.	2e	.
4B	.	.	.
2c#	1r	2e	2r
2d	.	2f	2a
=132	=132	=132	=132
1G	2r	2.d	2b-
.	2d	.	2b-
.	.	4e	.
1r	2d	2f	2a
.	2e-	[2g	2g
=133	=133	=133	=133
0r	2c	4g]	1a
.	.	8f#	.
.	.	8e	.
.	2d	2f#	.
.	2G	1g	1b-
.	[2g	.	.
=134	=134	=134	=134
2r	4g]	1d	1a
.	8f	.	.
.	8e	.	.
2d	4f	.	.
.	4g	.	.
2d	2a	2f	1r
2e-	[2g	2g	.
=135	=135	=135	=135
2c	2g]	2a	2r
2d	2f#	2a	2dd
2G	2.g	[1g	2dd
[2c	.	.	2ee-
.	4f	.	.
=136	=136	=136	=136
2c]	2e-	0g]	2cc
2B	2d	.	2dd
2.c	1e-	.	2g
.	.	.	[2gg
4B-	.	.	.
=137	=137	=137	=137
4G	1d	1b-	2gg]
4A	.	.	.
4B-	.	.	4ff
4c	.	.	4ee
[1d	2r	1a	1ff
.	2a	.	.
=138	=138	=138	=138
1d]	2a	2r	1dd
.	2a	2a	.
2r	2.f	2a	1r
2d	.	2a	.
.	4g	.	.
=139	=139	=139	=139
2d	1a	2.f	2r
2d	.	.	2dd
.	.	4e	.
2.B-	2r	1d	2dd
.	2d	.	2dd
4A	.	.	.
=140	=140	=140	=140
0G	2d	2r	2.b-
.	2d	2g	.
.	.	.	4a
.	4B-	2g	2g
.	4c	.	.
.	4d	2g	2gg
.	4B-	.	.
=141	=141	=141	=141
2r	4c	2.e	2gg
.	4d	.	.
2c	4e	.	2gg
.	4f	4d	.
2c	2g	1c	2.ee
2c	2c	.	.
.	.	.	4dd
=142	=142	=142	=142
2.A	2c	2r	1cc
.	2c	2cc	.
4G	.	.	.
[1F	2.A	2cc	2r
.	.	2cc	2ff
.	4G	.	.
=143	=143	=143	=143
1F]	2F	2.a	2ff
.	2f	.	2ff
.	.	4g	.
1B-	2f	2f	2.dd
.	2f	2d	.
.	.	.	4cc
=144	=144	=144	=144
2B-	2.d	1f	2b-
2B-	.	.	2.dd
.	4c	.	.
2.G	2B-	[1g	.
.	.	.	4cc
.	2G	.	[2b-
4F	.	.	.
=145	=145	=145	=145
1E-	1B-	1g]	4b-]
.	.	.	4a
.	.	.	1g
2D	1d	1a	.
2D	.	.	2f#
=146	=146	=146	=146
1G	1d	1.b-	1g
1F	[1f	.	1cc
.	.	[2a	.
=147	=147	=147	=147
1c	2f]	2a]	2r
.	1e	1g	1cc
1G	.	.	.
.	[2d	4f	[2b-
.	.	4e	.
=148	=148	=148	=148
1A	4d]	2f	2b-]
.	8c	.	.
.	8B-	.	.
.	2c	2.e	2.a
1B-	1d	.	.
.	.	4d	8g
.	.	.	8f
.	.	[2d	2g
=149	=149	=149	=149
1.A	1.e	2d]	1.a
.	.	4c#	.
.	.	4B	.
.	.	2c#	.
2A	2e	2c#	2a
=150	=150	=150	=150
1D	2.f	1d	1a
.	4e	.	.
2r	[1d	2r	2r
[2D	.	[2f	[2a
=151	=151	=151	=151
2D]	1d]	2f]	2a]
2G	.	2g	2b-
1F	2r	2.a	1cc
.	[2A	.	.
.	.	4g	.
=152	=152	=152	=152
4D	2A]	1f	1dd
4E	.	.	.
4F	2d	.	.
4G	.	.	.
4A	1c	1e	2r
4B-	.	.	.
[2c	.	.	2g
=153	=153	=153	=153
2c]	2G	1d	4g
.	.	.	4a
4B-	2G	.	4b-
4A	.	.	4cc
4B-	4G	2r	4dd
4A	4A	.	4cc
2G	4B-	2d	4dd
.	4c	.	4ee
=154	=154	=154	=154
1D	4d	4d	2.ff
.	4c	4e	.
.	4d	4f	.
.	4e	4g	8ee
.	.	.	8dd
1r	2.f	4a	2cc
.	.	4g	.
.	.	4a	2dd
.	8e-	4b-	.
.	8d	.	.
=155	=155	=155	=155
0r	2c	2cc	2ee-
.	2d	1b-	2dd
.	1e-	.	1g
.	.	4a	.
.	.	4g	.
=156	=156	=156	=156
1r	0d	2f	2a
.	.	1g	2b-
2r	.	.	1a
2D	.	4f	.
.	.	4e	.
=157	=157	=157	=157
4D	2r	1f	2a
4E	.	.	.
4F	2A	.	2a
4G	.	.	.
4A	4A	1e	2.cc
4G	4B-	.	.
4A	4c	.	.
4B-	4d	.	8b-
.	.	.	8a
=158	=158	=158	=158
2.c	4e	2r	2g
.	4d	.	.
.	4e	2c	2a
8B-	4f	.	.
8A	.	.	.
2G	2g	2d	2b-
2A	[2f	2c	[2a
=159	=159	=159	=159
1B-	4f]	1d	2a]
.	4e	.	.
.	1d	.	2g
1A	.	1e	2a
.	2c#	.	2ee
=160	=160	=160	=160
1D	1d	4d	2.ff
.	.	4e	.
.	.	4f	.
.	.	4g	8ee
.	.	.	8dd
2.F	2r	2a	2cc
.	2A	2f	2dd
8E	.	.	.
8D	.	.	.
=161	=161	=161	=161
2C	2c	2g	2ee-
2D	4B-	1b-	1dd
.	4A	.	.
1E-	2G	.	.
.	2A	4a	2cc
.	.	4g	.
=162	=162	=162	=162
0D	1B-	2f	0dd
.	.	1g	.
.	1A	.	.
.	.	2f#	.
=163	=163	=163	=163
0G	0G	0g	0b
*-	*-	*-	*-
!!!CDT: 1525/^1526/-1594/2/2
!!!OCY: Italia
!!!AGN: Mass (Parody)
!!!AST: renaissance, vocal
!!!ASW: Motet 1572 (Palestrina)
!!!PWK: Masses, Book 8vce
!!!RNB: Cadence finals: D,Bb
!!!YOR: Le Opere Complete, v. 30, p. 163
!!!YOO: Rome, Italy: Fratelli Scalera
!!!END: 1992//
!!!EED: John Miller
!!!YEC: Copyright 2000, John Miller
!!!YEN: United States of America
!!!YEM: Rights to all derivative electronic formats reserved.
!!!YEM: Refer to licensing agreement for further details.
!!!YEM: This file must be accompanied by the licensing agreement.
!!!YEM: A copy of the licensing agreement may be found at http://www.music-cog.ohio-state.edu/HumdrumDatabases/Palestrina/license.txt
!!!EMD: converted to Humdrum by Bret Aarden
